dist/icons/svgs/filter-outline.svg

<svg xmlns="http://www.w3.org/2000/svg" width="24" height="24" fill="currentcolor" class="icon-filter-outline" viewBox="0 0 24 24">
  <path d="M2 4.89062C2 3.99219 2.70312 3.25 3.60156 3.25H20.3594C21.2578 3.25 22 3.99219 22 4.89062C22 5.28125 21.8438 5.63281 21.6094 5.90625L15.125 13.9141V19.5C15.125 20.2031 14.5391 20.75 13.8359 20.75C13.5625 20.75 13.2891 20.6719 13.0547 20.4766L9.46094 17.625C9.07031 17.3125 8.875 16.8828 8.875 16.4141V13.9141L2.35156 5.90625C2.11719 5.63281 2 5.28125 2 4.89062ZM4.14844 5.125L10.5156 12.9766C10.6719 13.1719 10.75 13.3672 10.75 13.5625V16.2578L13.25 18.25V13.5625C13.25 13.3672 13.2891 13.1719 13.4453 12.9766L19.8516 5.125H4.14844Z"/>
</svg>

<svg xmlns="http://www.w3.org/2000/svg" width="24" height="24" fill="currentColor" class="icon-filter-outline" viewBox="0 0 24 24">
  <path d="M2 4.89c0-.898.703-1.64 1.602-1.64h16.757A1.65 1.65 0 0 1 22 4.89c0 .391-.156.743-.39 1.016l-6.485 8.008V19.5c0 .703-.586 1.25-1.29 1.25-.273 0-.546-.078-.78-.273L9.46 17.625a1.52 1.52 0 0 1-.586-1.21v-2.5l-6.522-8.01C2.117 5.633 2 5.281 2 4.891m2.148.235 6.368 7.852q.234.293.234.585v2.696l2.5 1.992v-4.687c0-.196.04-.391.195-.586l6.407-7.852z"/>
</svg>
